icons/Azul.svg

<svg xmlns="http://www.w3.org/2000/svg" width="256" height="256" fill="none" viewBox="0 0 256 256"><rect width="256" height="256" fill="url(#paint0_linear_170_306)" rx="60"/><g clip-path="url(#clip0_170_306)"><path fill="#fff" fill-rule="evenodd" d="M140.494 39.3L140.6 50.6L161.47 50.8L182.341 51L179.983 54.8C178.686 56.89 177.279 59.14 176.856 59.8C176.433 60.46 174.478 63.61 172.512 66.8C170.546 69.99 167.061 75.6095 164.768 79.288C162.476 82.9665 160.418 86.2965 160.195 86.688C159.972 87.0795 159.499 87.85 159.143 88.4C158.787 88.95 157.278 91.38 155.789 93.8C151.861 100.186 144.053 112.77 143.009 114.4C141.273 117.109 140.4 118.699 140.4 119.149C140.4 119.486 151.677 119.577 184.1 119.502L227.8 119.4V108V96.6L204.691 96.4965L181.583 96.3935L182.253 95.0965C182.622 94.3835 183.239 93.35 183.624 92.8C184.01 92.25 185.809 89.37 187.622 86.4C189.436 83.43 191.323 80.37 191.817 79.6C192.311 78.83 194.373 75.5 196.4 72.2C198.426 68.9 200.495 65.57 200.996 64.8C201.497 64.03 203.121 61.42 204.605 59C206.088 56.58 207.709 53.97 208.207 53.2C208.704 52.43 210.599 49.37 212.418 46.4C214.236 43.43 216.304 40.1 217.012 39C219.441 35.228 223.6 28.414 223.6 28.207C223.6 28.093 204.877 28 181.994 28H140.387L140.494 39.3ZM71.4225 36.1C69.92 39.015 67.569 43.56 66.198 46.2C64.8275 48.84 62.038 54.24 59.999 58.2C57.96 62.16 55.0795 67.74 53.597 70.6C47.4055 82.546 44.91 87.3705 35.546 105.5C33.7565 108.965 31.6005 113.082 30.7555 114.649C29.9105 116.216 29.0395 117.971 28.8195 118.549L28.42 119.6L45.11 119.599L61.8 119.598L64.3055 114.699C72.343 98.982 75.911 92.23 76.235 92.127C76.4355 92.063 77.23 93.1315 78 94.5015C80.461 98.88 81.8555 101.335 83.396 104C84.2225 105.43 85.326 107.354 85.848 108.274C86.37 109.195 88.0405 112.075 89.56 114.674L92.323 119.4L109.542 119.504L126.761 119.608L125.332 117.104C124.545 115.727 123.543 113.97 123.104 113.2C122.665 112.43 120.278 108.29 117.799 104C115.32 99.71 112.792 95.3 112.18 94.2C111.569 93.1 109.959 90.31 108.603 88C106.248 83.989 103.528 79.248 101.603 75.8C101.111 74.92 97.9995 69.52 94.687 63.8C91.3745 58.08 88.1695 52.5 87.565 51.4C86.96 50.3 84.4255 45.8875 81.9325 41.594C79.4395 37.301 77.044 33.116 76.609 32.294C75.191 29.615 74.507 30.1165 71.4225 36.1ZM28.0885 163.895L28.2015 193L29.3275 196.2C34.3325 210.428 44.561 221.358 57.982 226.82L60.883 228L75.9415 227.994C92.754 227.988 91.903 228.104 98.0045 224.976C113.315 217.127 123.008 202.901 124.777 185.684C125.223 181.345 125.383 137.343 124.957 136.232C124.741 135.67 122.958 135.6 108.979 135.6H93.2445L93.104 160.3C92.948 187.649 93.0795 186.245 90.2525 190.714C83.5175 201.361 66.7065 200.461 60.9725 189.146C59.1885 185.625 59.0865 184.184 58.8375 159L58.6 135L43.2875 134.895L27.975 134.79L28.0885 163.895ZM140.266 135.867C140.12 136.014 140 156.803 140 182.066V228H184H228V214.803V201.605L197.3 201.503L166.6 201.4L166.497 168.5L166.395 135.6H153.464C146.352 135.6 140.413 135.72 140.266 135.867Z" clip-rule="evenodd"/></g><defs><linearGradient id="paint0_linear_170_306" x1="0" x2="256" y1="0" y2="266" gradientUnits="userSpaceOnUse"><stop stop-color="#014C8E"/><stop offset="1" stop-color="#013B70"/></linearGradient><clipPath id="clip0_170_306"><rect width="200" height="200" fill="#fff" transform="translate(28 28)"/></clipPath></defs></svg>

<svg xmlns="http://www.w3.org/2000/svg" width="256" height="256" fill="none" viewBox="0 0 256 256"><rect width="256" height="256" fill="url(#a)" rx="60"/><g clip-path="url(#b)"><path fill="#fff" fill-rule="evenodd" d="m140.5 39.3.1 11.3 20.87.2 20.87.2-2.36 3.8-3.12 5-12.09 19.49a698 698 0 0 0-5.63 9.11l-3.35 5.4A3361 3361 0 0 1 143 114.4q-2.61 4.06-2.61 4.75c0 .34 11.28.43 43.7.35l43.7-.1V96.6l-23.1-.1-23.12-.1.67-1.3c.37-.72.99-1.75 1.37-2.3s2.19-3.43 4-6.4c1.82-2.97 3.7-6.03 4.2-6.8s2.55-4.1 4.58-7.4 4.1-6.63 4.6-7.4 2.12-3.38 3.6-5.8c1.49-2.42 3.1-5.03 3.6-5.8s2.4-3.83 4.22-6.8 3.88-6.3 4.6-7.4c2.42-3.77 6.58-10.59 6.58-10.8 0-.1-18.72-.2-41.6-.2h-41.61zm-69.08-3.2L66.2 46.2l-6.2 12-6.4 12.4c-6.2 11.95-8.69 16.77-18.05 34.9a795 795 0 0 1-4.8 9.15 51 51 0 0 0-1.93 3.9l-.4 1.05H61.8l2.5-4.9c8.04-15.72 11.61-22.47 11.94-22.57.2-.07.99 1 1.76 2.37a849 849 0 0 0 5.4 9.5l2.45 4.27c.52.92 2.19 3.8 3.71 6.4l2.76 4.73 17.22.1 17.22.1-1.43-2.5-2.23-3.9c-.43-.77-2.82-4.91-5.3-9.2a1214 1214 0 0 1-5.62-9.8c-.61-1.1-2.22-3.89-3.58-6.2a710 710 0 0 1-7-12.2c-.49-.88-3.6-6.28-6.91-12s-6.52-11.3-7.12-12.4-3.14-5.51-5.64-9.8a571 571 0 0 1-5.32-9.3c-1.42-2.68-2.1-2.18-5.19 3.8M28.1 163.9l.11 29.1 1.13 3.2c5 14.23 15.23 25.16 28.65 30.62l2.9 1.18h15.06c16.81-.01 15.96.1 22.06-3.02 15.31-7.85 25-22.08 26.78-39.3.44-4.34.6-48.34.18-49.45-.22-.56-2-.63-15.98-.63H93.24l-.14 24.7c-.15 27.35-.02 25.94-2.85 30.41-6.73 10.65-23.54 9.75-29.28-1.56-1.78-3.53-1.88-4.97-2.13-30.15l-.24-24-15.31-.1-15.31-.11zm112.18-28.03c-.15.14-.27 20.93-.27 46.2V228h88v-26.4l-30.7-.1-30.7-.1-.1-32.9-.1-32.9h-12.94c-7.1 0-13.05.12-13.2.27" clip-rule="evenodd"/></g><defs><linearGradient id="a" x1="0" x2="256" y1="0" y2="266" gradientUnits="userSpaceOnUse"><stop stop-color="#014C8E"/><stop offset="1" stop-color="#013B70"/></linearGradient><clipPath id="b"><path fill="#fff" d="M28 28h200v200H28z"/></clipPath></defs></svg>
